symbols/be/PVA-{50}.svg

<?xml version="1.0" encoding="UTF-8" standalone="no"?>
<!-- Initially created with Inkscape, optimized by hand -->

<svg
   version="1.1"
   width="20"
   height="17.320995"
   id="svg1"
   xmlns="http://www.w3.org/2000/svg"
   xmlns:svg="http://www.w3.org/2000/svg">
  <defs
     id="defs1" />
  <path
     id="Fond"
     d="M 20,-1.2580566e-6 H 3.1098633e-6 L 10.000003,17.320999 Z"
     fill="#edd827"
     style="stroke-width:0.1" />
  <path
     d="m 11.786676,2.8374907 c 0,-0.202668 -0.16,-0.362668 -0.352001,-0.362668 H 8.5866661 c -0.096,0 -0.170667,0.02133 -0.234667,0.08533 -0.08533,0.08533 -0.117334,0.16 -0.117334,0.277334 v 2.837342 c 0,0.117334 0.032,0.192001 0.117334,0.277334 0.064,0.064 0.138667,0.08533 0.234667,0.08533 h 1.408004 c 0.2986679,0 0.5013349,0.064 0.7253359,0.266667 0.245334,0.224001 0.341334,0.458669 0.341334,0.800003 v 0.704002 c 0,0.309334 -0.064,0.512002 -0.277334,0.746669 -0.181334,0.192001 -0.458668,0.320001 -0.7893359,0.320001 h -1.429337 c -0.192001,0 -0.352002,0.170667 -0.352002,0.362668 0,0.192001 0.160001,0.352001 0.352002,0.352001 h 1.429337 c 0.5546689,0 1.0453369,-0.224001 1.3333379,-0.565335 0.309334,-0.341334 0.437335,-0.704002 0.437335,-1.216004 v -0.704002 c 0,-0.597335 -0.266668,-1.109337 -0.618669,-1.397338 -0.298668,-0.245334 -0.842669,-0.384001 -1.1520039,-0.384001 h -1.045336 v -2.13334 h 2.4853409 c 0.192001,0 0.352001,-0.138667 0.352001,-0.352001 z"
     id="text1"
     style="font-size:10.6667px;font-family:Isonorm;-inkscape-font-specification:'Isonorm, Normal';fill-rule:evenodd;stroke-width:0.08"
     aria-label="5" />
</svg>

<?xml version="1.0" encoding="UTF-8"?>
<svg xmlns="http://www.w3.org/2000/svg" xmlns:xlink="http://www.w3.org/1999/xlink" width="20" height="17.320995" viewBox="0 0 20 17.320995">
<path fill-rule="nonzero" fill="rgb(92.941176%, 84.705882%, 15.294118%)" fill-opacity="1" d="M 20 0 L 0 0 L 10 17.320312 Z M 20 0 "/>
<path fill-rule="evenodd" fill="rgb(0%, 0%, 0%)" fill-opacity="1" d="M 11.785156 2.835938 C 11.785156 2.636719 11.625 2.476562 11.433594 2.476562 L 8.585938 2.476562 C 8.492188 2.476562 8.414062 2.496094 8.351562 2.558594 C 8.265625 2.644531 8.234375 2.71875 8.234375 2.835938 L 8.234375 5.675781 C 8.234375 5.792969 8.265625 5.867188 8.351562 5.953125 C 8.414062 6.015625 8.492188 6.039062 8.585938 6.039062 L 9.996094 6.039062 C 10.292969 6.039062 10.496094 6.101562 10.71875 6.304688 C 10.964844 6.527344 11.0625 6.761719 11.0625 7.105469 L 11.0625 7.808594 C 11.0625 8.117188 10.996094 8.320312 10.785156 8.554688 C 10.601562 8.746094 10.324219 8.875 9.996094 8.875 L 8.566406 8.875 C 8.375 8.875 8.214844 9.046875 8.214844 9.238281 C 8.214844 9.429688 8.375 9.589844 8.566406 9.589844 L 9.996094 9.589844 C 10.550781 9.589844 11.039062 9.367188 11.328125 9.023438 C 11.636719 8.683594 11.765625 8.320312 11.765625 7.808594 L 11.765625 7.105469 C 11.765625 6.507812 11.5 5.996094 11.148438 5.707031 C 10.847656 5.460938 10.304688 5.324219 9.996094 5.324219 L 8.949219 5.324219 L 8.949219 3.191406 L 11.433594 3.191406 C 11.625 3.191406 11.785156 3.050781 11.785156 2.835938 Z M 11.785156 2.835938 "/>
</svg>
